resources/icons/20px/add-clip.svg

<svg width="20" height="20" viewBox="0 0 20 20" xmlns="http://www.w3.org/2000/svg">
<path fill-rule="evenodd" clip-rule="evenodd" d="M15 0C15.5523 0 16 0.447715 16 1V4H19C19.5523 4 20 4.44772 20 5C20 5.55228 19.5523 6 19 6H16V9C16 9.55229 15.5523 10 15 10C14.4477 10 14 9.55229 14 9V6H11C10.4477 6 10 5.55228 10 5C10 4.44772 10.4477 4 11 4H14V1C14 0.447715 14.4477 0 15 0ZM1 4C0.447715 4 0 4.44772 0 5V9C0 9.55228 0.447715 10 1 10C1.55228 10 2 9.55228 2 9V6H5C5.55228 6 6 5.55228 6 5C6 4.44772 5.55228 4 5 4H1ZM0 19C0 19.5523 0.447715 20 1 20H5C5.55228 20 6 19.5523 6 19C6 18.4477 5.55228 18 5 18H2V15C2 14.4477 1.55228 14 1 14C0.447715 14 0 14.4477 0 15V19ZM15 20L11 20C10.4477 20 10 19.5523 10 19C10 18.4477 10.4477 18 11 18L14 18V15C14 14.4477 14.4477 14 15 14C15.5523 14 16 14.4477 16 15V19C16 19.5523 15.5523 20 15 20ZM8 15C9.65685 15 11 13.6569 11 12C11 10.3431 9.65685 9 8 9C6.34315 9 5 10.3431 5 12C5 13.6569 6.34315 15 8 15Z" />
</svg>

<svg xmlns="http://www.w3.org/2000/svg" viewBox="0 0 20 20">
  <path d="M15 0a1 1 0 0 1 1 1v3h3a1 1 0 1 1 0 2h-3v3a1 1 0 1 1-2 0V6h-3a1 1 0 1 1 0-2h3V1a1 1 0 0 1 1-1M1 4a1 1 0 0 0-1 1v4a1 1 0 0 0 2 0V6h3a1 1 0 0 0 0-2zM0 19a1 1 0 0 0 1 1h4a1 1 0 1 0 0-2H2v-3a1 1 0 1 0-2 0zm15 1h-4a1 1 0 1 1 0-2h3v-3a1 1 0 1 1 2 0v4a1 1 0 0 1-1 1m-7-5a3 3 0 1 0 0-6 3 3 0 0 0 0 6"/>
</svg>
